!!!COM: Scriabin, Alexander
!!!OTL@@FR: Étude en fa dièse majeur
!!!OTL@@EN: Etude in F# Major
!!!OPR@@FR: 8 Études
!!!OPR@@EN: 8 Etudes
!!!OPS: 42
!!!ONM: 4
!!!ODT: 1903
!!!AGN: Etude
**kern	**kern	**dynam
*staff2	*staff1	*staff1/2
*Ipiano	*Ipiano	*
*clefF4	*clefG2	*
*k[f#c#g#d#a#e#]	*k[f#c#g#d#a#e#]	*
*F#:	*F#:	*
*M3/4	*M3/4	*
=1	=1	=1
*^	*^	*
*	*	*	*^	*
2.ryy	12r	4.gg#	2cc#	4.e#/	.
.	12G##XL	.	.	.	.
.	12A#J	.	.	.	.
.	12c#L	.	.	.	.
.	12A#	.	.	.	.
.	.	8ff#	.	4f#/	.
.	12C#J	.	.	.	.
.	12A#L	8b#XL	4rc	.	.
.	12C#	.	.	.	.
.	.	8cc#J	.	8f#/	.
.	12FF#J	.	.	.	.
=2	=2	=2	=2	=2	=2
2.ryy	12r	4.ff#	2cc#	2f#/	.
.	12G#L	.	.	.	.
.	12AnJ	.	.	.	.
.	12c#L	.	.	.	.
.	12A	.	.	.	.
.	.	8een	.	.	.
.	12C#J	.	.	.	.
.	12c#L	8g#L	4rc	4en/	.
.	12C#	.	.	.	.
.	.	8anJ	.	.	.
.	12FF#J	.	.	.	.
=3	=3	=3	=3	=3	=3
2.ryy	12r	4.cc#	2f#	2dn/	.
.	12G#L	.	.	.	.
.	12AnJ	.	.	.	.
.	12dnL	.	.	.	.
.	12A	.	.	.	.
.	.	8b	.	.	.
.	12BBJ	.	.	.	.
.	12AL	8c#L	4rc	4r	.
.	12BB	.	.	.	.
.	.	8dJ	.	.	.
.	12FF#J	.	.	.	.
=4	=4	=4	=4	=4	=4
2.ryy	12r	12f#L	4rc	4r	.
.	12GnL	12en	.	.	.
.	12G#XJ	12e#XJ	.	.	.
.	12e#L	4dd#	8a#L	4r	.
.	12B	.	.	.	.
.	.	.	8f##XJ	.	.
.	12C#J	.	.	.	.
.	12BnL	8b#XL	8a#L	4e#/	.
.	12C#	.	.	.	.
.	.	8cc#J	8g#J	.	.
.	12FF#J	.	.	.	.
=5	=5	=5	=5	=5	=5
2.ryy	12r	4.gg#	2cc#	4.e#/	.
.	12G##XL	.	.	.	.
.	12A#J	.	.	.	.
.	12c#L	.	.	.	.
.	12A#	.	.	.	.
.	.	8ff#	.	4f#/	.
.	12C#J	.	.	.	.
.	12A#L	8b#XL	4rc	.	.
.	12C#	.	.	.	.
.	.	8cc#J	.	8f#/	.
.	12FF#J	.	.	.	.
=6	=6	=6	=6	=6	=6
2.ryy	12r	4.ff#	2cc#	2f#/	.
.	12G#L	.	.	.	.
.	12AnJ	.	.	.	.
.	12c#L	.	.	.	.
.	12A	.	.	.	.
.	.	8een	.	.	.
.	12C#J	.	.	.	.
.	12c#L	8g#L	4rc	4en/	.
.	12C#	.	.	.	.
.	.	8anJ	.	.	.
.	12FF#J	.	.	.	.
=7	=7	=7	=7	=7	=7
2.ryy	12r	4.cc#	2f#	2dn/	.
.	12G#L	.	.	.	.
.	12AnJ	.	.	.	.
.	12dnL	.	.	.	.
.	12A	.	.	.	.
.	.	8b	.	.	.
.	12BBJ	.	.	.	.
.	12f#L	8c#L	4rc	4r	.
.	12A	.	.	.	.
.	.	8dJ	.	.	.
.	12BBJ	.	.	.	.
=8	=8	=8	=8	=8	=8
2.ryy	12r	8f#L	2dn	4r	.
.	12F##XL	.	.	.	.
.	.	8enJ	.	.	.
.	12G#J	.	.	.	.
.	12enL	8a#L	.	4r	.
.	12G#	.	.	.	.
.	.	8bJ	.	.	.
.	12EnJ	.	.	.	.
.	12c#L	8ff#L	4b	4g#/	.
.	12e	.	.	.	.
.	.	8eenJ	.	.	.
.	12dnJ	.	.	.	.
=9	=9	=9	=9	=9	=9
2.ryy	12r	4.bb	2een	4.g#/	.
.	12B#XL	.	.	.	.
.	12c#J	.	.	.	.
.	12enL	.	.	.	.
.	12c#	.	.	.	.
.	.	8aan	.	4an/	.
.	12EnJ	.	.	.	.
.	12c#L	8dd#L	4rc	.	.
.	12E	.	.	.	.
.	.	8eenJ	.	8a/	.
.	12AAnJ	.	.	.	.
*	*	*	*v	*v	*
=10	=10	=10	=10	=10
2.ryy	12r	8aanL	2.an	.
.	12c#L	.	.	.
.	.	8cc#J	.	.
.	12enJ	.	.	.
.	12c#L	8een	.	.
.	12F#	.	.	.
.	.	4ddn	.	.
.	12dnJ	.	.	.
.	12F#L	.	.	.
.	12FF#J	.	.	.
.	.	8cc#	.	.
.	12r	.	.	.
=11	=11	=11	=11	=11
*	*	*	*^	*
2.ryy	12r	4raa	8cc#L	2f#/	.
.	12c##XL	.	.	.	.
.	.	.	[8b#XJ	.	.
.	12d#J	.	.	.	.
.	12f#L	8aa#X	4b#]	.	.
.	12d#	.	.	.	.
.	.	4gg#	.	.	.
.	12G#J	.	.	.	.
.	12B#XL	.	4g#	4f#/	.
.	12F#	.	.	.	.
.	.	8ee#	.	.	.
.	12GG#J	.	.	.	.
=12	=12	=12	=12	=12	=12
2.ryy	12C#L	[4dd#	2g#	2e#/	.
.	12E#	.	.	.	.
.	12B#XJ	.	.	.	.
.	4c#	12dd#L]	.	.	.
.	.	12cc#	.	.	.
.	.	12b#XJ	.	.	.
.	4e#	12cc#L	4g#	4r	.
.	.	12dd#	.	.	.
.	.	12ee#J	.	.	.
*	*	*v	*v	*v	*
=13	=13	=13	=13
2.ryy	12d#L	12bL 12dd# 12ff#	.
.	12E#	12.b 12.dd# 12.gg#	.
.	12F#J	.	.
.	.	24f#Jk 24b 24dd#	.
.	12BL	4f# 4b 4dd#	.
.	12F#	.	.
.	12GG#J	.	.
.	12F#L	12f#L 12b 12cc#	.
.	12GG#	12f# 12b 12dd#	.
.	12CC#J	12d#J 12f# 12b	.
=14	=14	=14	=14
*	*	*^	*
2.ryy	12r	2a#	2.B 2.d#	.
.	12E#L	.	.	.
.	12F#J	.	.	.
.	12BL	.	.	.
.	12F#	.	.	.
.	12GG#J	.	.	.
.	12F#L	4g#	.	.
.	12GG#	.	.	.
.	12CC#J	.	.	.
=15	=15	=15	=15	=15
4f#	12f#L	8raa	4rc	.
.	12G#	.	.	.
.	.	8g#	.	.
.	[12A#J	.	.	.
4rc	12A#L] 12f#	[4dd#	4rc	.
.	12B	.	.	.
.	12C#J	.	.	.
4rc	12e#L	6dd#]	12f##XL	.
.	12B	.	12g#	.
.	12C#J	12dd#	12g##XJ	.
=16	=16	=16	=16	=16
2.ryy	12f#L	4dd#	4a#	.
.	12A#	.	.	.
.	12C#J	.	.	.
.	12A#L	12cc#L	4f#	.
.	12C#	12dd#	.	.
.	12FF#J	12ee#J	.	.
.	4a#	12ff#L	4cc#	.
.	.	12gg#	.	.
.	.	12aa#J	.	.
*	*	*v	*v	*
=17	=17	=17	=17
2.ryy	12g#L	12eenL 12gg# 12bb	.
.	12A#	12.ee 12.gg# 12.ccc#	.
.	12BJ	.	.
.	.	24bJk 24ee 24gg#	.
.	12enL	4b 4ee 4gg#	.
.	12B	.	.
.	12C#J	.	.
.	12BL	12bL 12ee 12ff#	.
.	12C#	12b 12ee 12gg#	.
.	12FF#J	12g#J 12b 12ee	.
=18	=18	=18	=18
*	*	*^	*
2.ryy	12r	2dd#	2.en 2.g#	.
.	12A#L	.	.	.
.	12BJ	.	.	.
.	12enL	.	.	.
.	12B	.	.	.
.	12C#J	.	.	.
.	12BL	4cc#	.	.
.	12C#	.	.	.
.	12FF#J	.	.	.
=19	=19	=19	=19	=19
4b	12bL	8raa	4rc	.
.	12c#	.	.	.
.	.	8cc#	.	.
.	[12d#J	.	.	.
4rc	12d#L] 12b	[4gg#	4rc	.
.	12en	.	.	.
.	12F#J	.	.	.
4rc	12a#L	6gg#]	12b#XL	.
.	12e	.	12cc#	.
.	12F#J	12gg#	12cc##XJ	.
=20	=20	=20	=20	=20
2.ryy	12bL	[4gg#	4dd#	.
.	12d#	.	.	.
.	12F#J	.	.	.
.	12d#L	12gg#L]	4rc	.
.	12F#	12ff#	.	.
.	12BBJ	12ee#J	.	.
.	4r	12ff#L	4rc	.
.	.	12gg#	.	.
.	.	12aa#J	.	.
*	*	*v	*v	*
=21	=21	=21	=21
4rc	12f#L	12dd#L 12ff# 12ccc#	.
.	12B	12f# 12b 12cc##X	.
.	12D#J	12f#J 12b 12dd#	.
6A#	12A#L	6dd# 6ff# 6ccc#X	.
.	12D#	.	.
12B	12GG#J	[12dd# [12ff# [12bb	.
4rc	12D#L	12dd#] 12ff#] 12bb]	.
.	12B	12r	.
.	12f#J	12b 12dd# 12aa#	.
=22	=22	=22	=22
2.ryy	12f#L	4.b 4.dd# 4.aa#	.
.	12B	.	.
.	12D#J	.	.
.	12BL	.	.
.	12D#	.	.
.	.	8b 8dd# 8gg#	.
.	12GG#J	.	.
.	12D#L	12bL 12dd# 12ff#	.
.	12B	12f# 12b 12dd#	.
.	12f#J	12d#J 12b	.
=23	=23	=23	=23
*	*	*^	*
2.ryy	12e#L	12a#L	4c#	.
.	12B	12f##X	.	.
.	[12C#J	12g#J	.	.
.	12C#L]	8dd#L	4e#	.
.	12B	.	.	.
.	.	8cc#J	.	.
.	12e#J	.	.	.
.	12f#L	8bL	4d#	.
.	12B	.	.	.
.	.	8a#J	.	.
.	12G#J	.	.	.
=24	=24	=24	=24	=24
2.ryy	12e#L	12a#L	4c#	.
.	12B	12f##X	.	.
.	[12C#J	12g#J	.	.
.	12C#L]	8dd#L	2e#	.
.	12B	.	.	.
.	.	8b#XJ	.	.
.	[12e#J	.	.	.
.	12e#L]	8dd#L	.	.
.	12B	.	.	.
.	.	8cc#J	.	.
.	12C#J	.	.	.
=25	=25	=25	=25	=25
*	*	*	*^	*
2.ryy	12r	4.gg#	2cc#	4.e#/	.
.	12G##XL	.	.	.	.
.	12A#J	.	.	.	.
.	12c#L	.	.	.	.
.	12A#	.	.	.	.
.	.	8ff#	.	4f#/	.
.	12C#J	.	.	.	.
.	12A#L	8b#XL	4rc	.	.
.	12C#	.	.	.	.
.	.	8cc#J	.	8f#/	.
.	12FF#J	.	.	.	.
=26	=26	=26	=26	=26	=26
2.ryy	12r	4.ff#	2cc#	2f#/	.
.	12G#L	.	.	.	.
.	12AnJ	.	.	.	.
.	12c#L	.	.	.	.
.	12A	.	.	.	.
.	.	8een	.	.	.
.	12C#J	.	.	.	.
.	12c#L	8g#L	4rc	4en/	.
.	12C#	.	.	.	.
.	.	8anJ	.	.	.
.	12FF#J	.	.	.	.
=27	=27	=27	=27	=27	=27
2.ryy	12r	4.cc#	2f#	2dn/	.
.	12G#L	.	.	.	.
.	12AnJ	.	.	.	.
.	12dnL	.	.	.	.
.	12A	.	.	.	.
.	.	8b	.	.	.
.	12BBJ	.	.	.	.
.	12AL	8c#L	4rc	4r	.
.	12BB	.	.	.	.
.	.	8dJ	.	.	.
.	12FF#J	.	.	.	.
=28	=28	=28	=28	=28	=28
2.ryy	12r	12f#L	4rc	4r	.
.	12GnL	12en	.	.	.
.	12G#XJ	12e#XJ	.	.	.
.	12e#L	4dd#	8a#L	4r	.
.	12B	.	.	.	.
.	.	.	8f##XJ	.	.
.	12C#J	.	.	.	.
.	12BnL	8b#XL	8a#L	4e#/	.
.	12C#	.	.	.	.
.	.	8cc#J	8g#J	.	.
.	12FF#J	.	.	.	.
=29	=29	=29	=29	=29	=29
2.ryy	12r	[4gg#	2cc#	[4e#/	.
.	12G##XL	.	.	.	.
.	12A#J	.	.	.	.
.	12c#L	8gg#L]	.	8e#/L]	.
.	12A#	.	.	.	.
.	.	8ff#J	.	8f#/J	.
.	12C#J	.	.	.	.
.	12A#L	12b#XL	4f#	4en/	.
.	12F#	12.cc#	.	.	.
.	12FF#J	.	.	.	.
.	.	24cc##XJk	.	.	.
=30	=30	=30	=30	=30	=30
2.ryy	12BBL	2cc##X	4f#	2en/	.
.	12F#	.	.	.	.
.	12A#J	.	.	.	.
.	12f#L	.	12a#L	.	.
.	12A#	.	12g#	.	.
.	12F#J	.	12f#J	.	.
.	12BL	4dd#	6f#	4d#/	.
.	12A#	.	.	.	.
.	12BJ	.	12f##X	.	.
=31	=31	=31	=31	=31	=31
2.ryy	12r	[4aa#	2dd#	[4f##X/	.
.	12A##XL	.	.	.	.
.	12B#XJ	.	.	.	.
.	12d#L	8aa#L]	.	8f##/L]	.
.	12B#	.	.	.	.
.	.	8gg#J	.	8g#/J	.
.	12D#J	.	.	.	.
.	12B#L	12cc##XL	4g#	4f#X/	.
.	12G#	12.dd#	.	.	.
.	12GG#J	.	.	.	.
.	.	24dd##XJk	.	.	.
=32	=32	=32	=32	=32	=32
2.ryy	12C#L	2dd##X	4g#	2f#/	.
.	12G#	.	.	.	.
.	12B#XJ	.	.	.	.
.	12g#L	.	12b#XL	.	.
.	12B#	.	12a#	.	.
.	12G#J	.	12g#J	.	.
.	12c#L	4ee#	6g#	4e#/	.
.	12B#	.	.	.	.
.	12c#J	.	12g##X	.	.
*	*	*	*v	*v	*
=33	=33	=33	=33	=33
2.ryy	12r	4.dd# 4.ddd#	2gg#X	.
.	12enL	.	.	.
.	12e#XJ	.	.	.
.	12bL	.	.	.
.	12e#	.	.	.
.	.	8cc# 8ccc#	.	.
.	12G#J	.	.	.
.	12e#L	12ff##XL	4b 4cc#	.
.	12c#	12.gg#	.	.
.	12C#J	.	.	.
.	.	24gg##XJk	.	.
=34	=34	=34	=34	=34
*	*	*	*^	*
2.ryy	12F#L	4.gg##X	2cc#	4.b\	.
.	12c#	.	.	.	.
.	12e#J	.	.	.	.
.	12f#L	.	.	.	.
.	12c#	.	.	.	.
.	.	8aa#	.	8a#/	.
.	12F#J	.	.	.	.
.	12f#L	16cc##XLL	4rc	8a#/L	.
.	.	16dd#	.	.	.
.	12B#X	.	.	.	.
.	.	16gg#X	.	8g#/J	.
.	12G#J	.	.	.	.
.	.	16ff#JJ	.	.	.
*	*	*v	*v	*v	*
=35	=35	=35	=35
2.ryy	12f#L	12ff#L	.
.	12Bn	12ee#	.
.	[12C#J	12dd#J	.
.	12C#L]	8cc#	.
.	12B	.	.
.	.	4a#	.
.	12f#J	.	.
.	12e#L	.	.
.	12B	.	.
.	.	8g#	.
.	12C#J	.	.
=36	=36	=36	=36
*	*	*^	*
2.ryy	12e#L	2g#	2c#	.
.	12A#	.	.	.
.	12C#J	.	.	.
.	12FF#L	.	.	.
.	12C#	.	.	.
.	12A#J	.	.	.
.	12d#L	4f#	4rc	.
.	12B#X	.	.	.
.	12c#J	.	.	.
*	*	*v	*v	*
=37	=37	=37	=37
2.ryy	12f#L	12bL 12dd# 12ff#	.
.	12G#	12.b 12.dd# 12.gg#	.
.	12A#J	.	.
.	.	24f#Jk 24b 24dd#	.
.	12BL	4f# 4b 4dd#	.
.	12C#	.	.
.	[12FF#J	.	.
.	12FF#L]	12f#L 12b 12cc#	.
.	12C#	12f# 12b 12dd#	.
.	12BJ	12d#J 12f# 12b	.
=38	=38	=38	=38
*	*	*^	*
2.ryy	12f#L	2a#	4rc	.
.	12A#	.	.	.
.	12BJ	.	.	.
.	12d#L	.	4rc	.
.	12B	.	.	.
.	12C#J	.	.	.
.	12FF#L	4g#	4B 4d# 4f#	.
.	12C#	.	.	.
.	12BJ	.	.	.
=39	=39	=39	=39	=39
4f#	12f#L	8raa	4rc	.
.	12G#	.	.	.
.	.	8g#	.	.
.	[12A#J	.	.	.
4rc	12A#L] 12f#	[4dd#	4rc	.
.	12B	.	.	.
.	12C#J	.	.	.
4rc	12e#L	6dd#]	12f##XL	.
.	12B	.	12g#	.
.	12C#J	12dd#	12g##XJ	.
=40	=40	=40	=40	=40
2.ryy	12f#L	[4dd#	2.a#	.
.	12A#	.	.	.
.	12C#J	.	.	.
.	12FF#L	12dd#L]	.	.
.	12C#	12cc#	.	.
.	12A#J	12b#XJ	.	.
.	4f#	12cc#L	.	.
.	.	12dd#	.	.
.	.	12ee#J	.	.
*	*	*v	*v	*
=41	=41	=41	=41
2.ryy	12f#L	12bL 12dd# 12ff#	.
.	12G#	12.b 12.dd# 12.gg#	.
.	12A#J	.	.
.	.	24f#Jk 24b 24dd#	.
.	12BL	4f# 4b 4dd#	.
.	12C#	.	.
.	[12FF#J	.	.
.	12FF#L]	12f#L 12b 12cc#	.
.	12C#	12f# 12b 12dd#	.
.	12BJ	12d#J 12f# 12b	.
=42	=42	=42	=42
*	*	*^	*
2.ryy	12f#L	2a#	4rc	.
.	12A#	.	.	.
.	12BJ	.	.	.
.	12d#L	.	4rc	.
.	12B	.	.	.
.	12C#J	.	.	.
.	12FF#L	4g#	4B 4d# 4f#	.
.	12C#	.	.	.
.	12BJ	.	.	.
=43	=43	=43	=43	=43
4f#	12f#L	8raa	4rc	.
.	12G#	.	.	.
.	.	8g#	.	.
.	[12A#J	.	.	.
4rc	12A#L] 12f#	[4dd#	4rc	.
.	12B	.	.	.
.	12C#J	.	.	.
4rc	12e#L	6dd#]	12f##XL	.
.	12B	.	12g#	.
.	12C#J	12dd#	12g##XJ	.
=44	=44	=44	=44	=44
2.ryy	12f#L	4dd#	2a#	.
.	12A#	.	.	.
.	12C#J	.	.	.
.	12FF#L	4cc#	.	.
.	12C#	.	.	.
.	12A#J	.	.	.
.	12e#L	6dd#	12f##XL	.
.	12B	.	12g#	.
.	12C#J	12dd#	12g##XJ	.
=45	=45	=45	=45	=45
2.ryy	12f#L	4dd#	2a#	.
.	12A#	.	.	.
.	12C#J	.	.	.
.	12FF#L	4cc#	.	.
.	12C#	.	.	.
.	12A#J	.	.	.
.	12e#L	6dd#	12f##XL	.
.	12B	.	12g#	.
.	12C#J	12dd#	12g##XJ	.
=46	=46	=46	=46	=46
2.ryy	12f#L	2dd#	2.a#	.
.	12A#	.	.	.
.	12C#J	.	.	.
.	12FF#L	.	.	.
.	12C#	.	.	.
.	12A#J	.	.	.
.	12f#L	4cc#	.	.
.	12A#	.	.	.
.	12C#J	.	.	.
*	*	*v	*v	*
=47	=47	=47	=47
2.ryy	4FFF#	4aa#	.
.	4r	4r	.
.	4r	4r	.
*v	*v	*	*
==	==	==
*-	*-	*-
!!!system-decoration: {(*)}
!!!ENC: Bryan Jacob Bell
!!!END: November 2021 to April 2022
!!!PED: Konstantin Igumnov and Yakov Milstein
!!!PTL: A.N. Skryabin: Polnoe sobranie sochinenii dlia fortepiano (Muzgiz)
